_icons/SVG/154-meganium.svg

<svg xmlns="http://www.w3.org/2000/svg" width="32" height="32"><path fill="#BEE758" d="M12.426 20.355S6.668 22.6 9.877 31.66c.071.2.266.34.478.34h2.12a.5.5 0 00.499-.525l-.548-11.12z"/><path fill="#B1E346" d="M19.549 20.355s5.758 2.245 2.549 11.305a.515.515 0 01-.478.34H19.5a.5.5 0 01-.499-.525l.548-11.12z"/><path fill="#E3E5E5" d="M18.574 23.201S17 21.556 15 21.556c0 0 1.458-7.045 7.566-3.613a.53.53 0 01.263.464c-.142 5.7-4.255 4.794-4.255 4.794z"/><path fill="#C84054" d="M18.574 23.201S17 21.556 15 21.556c0 0 1.928-5.783 6.729-3.155.165.09.272.28.266.468-.14 4.672-3.421 4.332-3.421 4.332z"/><path fill="#EDEEEE" d="M13.426 23.201S15 21.556 17 21.556c0 0-1.458-7.045-7.566-3.613a.53.53 0 00-.263.464c.142 5.7 4.255 4.794 4.255 4.794z"/><path fill="#D84459" d="M13.426 23.201S15 21.556 17 21.556c0 0-1.928-5.783-6.729-3.155a.527.527 0 00-.266.468c.139 4.672 3.421 4.332 3.421 4.332z"/><path fill="#CBEB6B" d="M16 12h-2l-.264 3.172c-.225 2.702-1.71 6.712-3.133 9.02-.382.62-.596 1.36-.596 2.809 0 1.961.545 3.772.848 4.667a.487.487 0 00.467.332h1.992c.464 0 .686-.224.686-.5v-1.591c.338.053 1.672.085 2 .085V12z"/><path fill="#BEE758" d="M16 12h2l.264 3.172c.225 2.702 1.71 6.712 3.133 9.02.382.62.596 1.36.596 2.809 0 1.961-.545 3.772-.848 4.667a.487.487 0 01-.467.332h-1.992c-.464 0-.686-.224-.686-.5v-1.591c-.338.053-1.672.085-2 .085V12z"/><path fill="#D9F07D" d="M16 5c-2.209 0-4 2.291-4 4.5s1.791 3.5 4 3.5V5z"/><path fill="#CBEB6B" d="M20 9.5C20 7.291 18.209 5 16 5v8c2.209 0 4-1.291 4-3.5z"/><path fill="#EDEEEE" d="M16 22h-2.2s-2.2 5 2.2 7.167V22z"/><path fill="#E3E5E5" d="M16 22v7.167C20.4 27 18.2 22 18.2 22H16z"/><path fill="#D84459" d="M16 22h-2s-2 4 2 6.167V22z"/><path fill="#C84054" d="M16 22v6.167C20 26 18 22 18 22h-2z"/><path fill="#F7F7F7" d="M12.426 20.355S14 22 16 22c0 0-1.458 7.045-7.566 3.613a.53.53 0 01-.263-.464c.142-5.7 4.255-4.794 4.255-4.794z"/><path fill="#F3586F" d="M12.426 20.355S14 22 16 22c0 0-1.928 5.783-6.729 3.155a.527.527 0 01-.266-.468c.139-4.672 3.421-4.332 3.421-4.332z"/><path fill="#EDEEEE" d="M19.574 20.355S18 22 16 22c0 0 1.458 7.045 7.566 3.613a.53.53 0 00.263-.464c-.142-5.7-4.255-4.794-4.255-4.794z"/><path fill="#E85160" d="M19.574 20.355S18 22 16 22c0 0 1.928 5.783 6.729 3.155a.527.527 0 00.266-.468c-.14-4.672-3.421-4.332-3.421-4.332z"/><path fill="#FFD96C" d="M14.977 2.604c.385-.325.418-1.047.034-1.712-.414-.717-1.138-1.075-1.616-.799-.478.276-.53 1.082-.116 1.799.312.54.798.875 1.224.891C14.747 3.635 15 4.991 15 7a.25.25 0 00.5 0c0-2.087-.263-3.503-.523-4.396z"/><path fill="#FFD04D" d="M18.604.093c-.478-.276-1.202.082-1.616.799-.384.665-.351 1.387.034 1.712-.259.893-.522 2.309-.522 4.396a.25.25 0 00.5 0c0-2.009.253-3.365.497-4.216.426-.016.912-.351 1.224-.891.414-.718.362-1.524-.117-1.8z"/><path fill="#FFF" d="M13.52 10.5h.96c.25 0 .463-.18.496-.427C15.07 9.359 15.106 8 14 8s-1.07 1.359-.975 2.073a.496.496 0 00.495.427z"/><path fill="#FFD96C" d="M14.991 9.057c-.066-.505-.289-.954-.836-1.031-.367.064-.655.467-.655.974 0 .552.336 1 .75 1 .399 0 .718-.419.741-.943z"/><path fill="#373F3F" d="M14.593 8.2a.86.86 0 00-.425-.172c-.231.066-.409.357-.409.722 0 .414.224.75.5.75s.5-.336.5-.75a.93.93 0 00-.166-.55z"/><circle fill="#FFF" cx="14.3" cy="8.55" r=".25"/><path fill="#F7F7F7" d="M18.48 10.5h-.96a.496.496 0 01-.496-.427C16.93 9.359 16.894 8 18 8s1.07 1.359.975 2.073a.496.496 0 01-.495.427z"/><path fill="#FFD04D" d="M17.009 9.057c.066-.505.289-.954.836-1.031.367.064.655.467.655.974 0 .552-.336 1-.75 1-.399 0-.718-.419-.741-.943z"/><path fill="#2B3332" d="M17.407 8.2a.86.86 0 01.425-.172c.231.066.409.357.409.722 0 .414-.224.75-.5.75s-.5-.336-.5-.75a.93.93 0 01.166-.55z"/><circle fill="#F7F7F7" cx="17.7" cy="8.55" r=".25"/><path fill="#FFE28A" d="M13.097 20.923l-.012-.006s-1.447.424-1.565 1.808a.503.503 0 00.487.536c1.636.064 2.257-1.265 2.389-1.605a6.18 6.18 0 01-1.299-.733z"/><path fill="#FFD96C" d="M18.903 20.923l.012-.006s1.447.424 1.565 1.808a.503.503 0 01-.487.536c-1.636.064-2.257-1.265-2.389-1.605a6.18 6.18 0 001.299-.733z"/></svg>

<?xml version="1.0" encoding="utf-8"?>
<!-- Generator: Adobe Illustrator 23.0.6, SVG Export Plug-In . SVG Version: 6.00 Build 0)  -->
<svg version="1.1" xmlns="http://www.w3.org/2000/svg" xmlns:xlink="http://www.w3.org/1999/xlink" x="0px" y="0px" width="32px"
	 height="32px" viewBox="0 0 32 32" enable-background="new 0 0 32 32" xml:space="preserve">
<g id="labels">
	<g>
	</g>
</g>
<g id="icons">
	<g>
		<path fill="#BEE758" d="M12.426,20.355c0,0-5.758,2.245-2.549,11.305c0.071,0.2,0.266,0.34,0.478,0.34h2.12
			c0.286,0,0.513-0.239,0.499-0.525L12.426,20.355z"/>
		<path fill="#B1E346" d="M19.549,20.355c0,0,5.758,2.245,2.549,11.305C22.027,31.86,21.832,32,21.62,32H19.5
			c-0.286,0-0.513-0.239-0.499-0.525L19.549,20.355z"/>
		<path fill="#E3E5E5" d="M18.574,23.201c0,0-1.574-1.645-3.574-1.645c0,0,1.458-7.045,7.566-3.613
			c0.162,0.091,0.268,0.278,0.263,0.464C22.687,24.107,18.574,23.201,18.574,23.201z"/>
		<path fill="#C84054" d="M18.574,23.201c0,0-1.574-1.645-3.574-1.645c0,0,1.928-5.783,6.729-3.155
			c0.165,0.09,0.272,0.28,0.266,0.468C21.855,23.541,18.574,23.201,18.574,23.201z"/>
		<path fill="#EDEEEE" d="M13.426,23.201c0,0,1.574-1.645,3.574-1.645c0,0-1.458-7.045-7.566-3.613
			c-0.162,0.091-0.268,0.278-0.263,0.464C9.313,24.107,13.426,23.201,13.426,23.201z"/>
		<path fill="#D84459" d="M13.426,23.201c0,0,1.574-1.645,3.574-1.645c0,0-1.928-5.783-6.729-3.155
			c-0.165,0.09-0.272,0.28-0.266,0.468C10.144,23.541,13.426,23.201,13.426,23.201z"/>
		<path fill="#CBEB6B" d="M16,12h-2l-0.264,3.172c-0.225,2.702-1.71,6.712-3.133,9.02c-0.382,0.62-0.596,1.36-0.596,2.809
			c0,1.961,0.545,3.772,0.848,4.667C10.924,31.87,11.108,32,11.322,32l1.992,0C13.778,32,14,31.776,14,31.5v-1.591
			c0.338,0.053,1.672,0.085,2,0.085V12z"/>
		<path fill="#BEE758" d="M16,12h2l0.264,3.172c0.225,2.702,1.71,6.712,3.133,9.02c0.382,0.62,0.596,1.36,0.596,2.809
			c0,1.961-0.545,3.772-0.848,4.667C21.076,31.87,20.892,32,20.678,32l-1.992,0C18.222,32,18,31.776,18,31.5v-1.591
			c-0.338,0.053-1.672,0.085-2,0.085V12z"/>
		<path fill="#D9F07D" d="M16,5c-2.209,0-4,2.291-4,4.5c0,2.209,1.791,3.5,4,3.5V5z"/>
		<path fill="#CBEB6B" d="M20,9.5C20,7.291,18.209,5,16,5v8C18.209,13,20,11.709,20,9.5z"/>
		<path fill="#EDEEEE" d="M16,22h-2.2c0,0-2.2,5,2.2,7.167V22z"/>
		<path fill="#E3E5E5" d="M16,22v7.167C20.4,27,18.2,22,18.2,22H16z"/>
		<path fill="#D84459" d="M16,22h-2c0,0-2,4,2,6.167V22z"/>
		<path fill="#C84054" d="M16,22v6.167C20,26,18,22,18,22H16z"/>
		<path fill="#F7F7F7" d="M12.426,20.355C12.426,20.355,14,22,16,22c0,0-1.458,7.045-7.566,3.613
			c-0.162-0.091-0.268-0.278-0.263-0.464C8.313,19.449,12.426,20.355,12.426,20.355z"/>
		<path fill="#F3586F" d="M12.426,20.355C12.426,20.355,14,22,16,22c0,0-1.928,5.783-6.729,3.155
			c-0.165-0.09-0.272-0.28-0.266-0.468C9.144,20.015,12.426,20.355,12.426,20.355z"/>
		<path fill="#EDEEEE" d="M19.574,20.355C19.574,20.355,18,22,16,22c0,0,1.458,7.045,7.566,3.613
			c0.162-0.091,0.268-0.278,0.263-0.464C23.687,19.449,19.574,20.355,19.574,20.355z"/>
		<path fill="#E85160" d="M19.574,20.355C19.574,20.355,18,22,16,22c0,0,1.928,5.783,6.729,3.155c0.165-0.09,0.272-0.28,0.266-0.468
			C22.855,20.015,19.574,20.355,19.574,20.355z"/>
		<path fill="#FFD96C" d="M14.977,2.604c0.385-0.325,0.418-1.047,0.034-1.712c-0.414-0.717-1.138-1.075-1.616-0.799
			c-0.478,0.276-0.53,1.082-0.116,1.799c0.312,0.54,0.798,0.875,1.224,0.891C14.747,3.635,15,4.991,15,7
			c0,0.138,0.112,0.25,0.25,0.25S15.5,7.138,15.5,7C15.5,4.913,15.237,3.497,14.977,2.604z"/>
		<path fill="#FFD04D" d="M18.604,0.093c-0.478-0.276-1.202,0.082-1.616,0.799c-0.384,0.665-0.351,1.387,0.034,1.712
			C16.763,3.497,16.5,4.913,16.5,7c0,0.138,0.112,0.25,0.25,0.25S17,7.138,17,7c0-2.009,0.253-3.365,0.497-4.216
			c0.426-0.016,0.912-0.351,1.224-0.891C19.135,1.175,19.083,0.369,18.604,0.093z"/>
		<path fill="#FFFFFF" d="M13.52,10.5h0.96c0.25,0,0.463-0.18,0.496-0.427C15.07,9.359,15.106,8,14,8s-1.07,1.359-0.975,2.073
			C13.058,10.32,13.271,10.5,13.52,10.5z"/>
		<path fill="#FFD96C" d="M14.991,9.057c-0.066-0.505-0.289-0.954-0.836-1.031C13.788,8.09,13.5,8.493,13.5,9
			c0,0.552,0.336,1,0.75,1C14.649,10,14.968,9.581,14.991,9.057z"/>
		<path fill="#373F3F" d="M14.593,8.2c-0.11-0.091-0.255-0.146-0.425-0.172c-0.231,0.066-0.409,0.357-0.409,0.722
			c0,0.414,0.224,0.75,0.5,0.75c0.276,0,0.5-0.336,0.5-0.75C14.759,8.53,14.694,8.337,14.593,8.2z"/>
		<circle fill="#FFFFFF" cx="14.3" cy="8.55" r="0.25"/>
		<path fill="#F7F7F7" d="M18.48,10.5h-0.96c-0.25,0-0.463-0.18-0.496-0.427C16.93,9.359,16.894,8,18,8s1.07,1.359,0.975,2.073
			C18.942,10.32,18.729,10.5,18.48,10.5z"/>
		<path fill="#FFD04D" d="M17.009,9.057c0.066-0.505,0.289-0.954,0.836-1.031C18.212,8.09,18.5,8.493,18.5,9c0,0.552-0.336,1-0.75,1
			C17.351,10,17.032,9.581,17.009,9.057z"/>
		<path fill="#2B3332" d="M17.407,8.2c0.11-0.091,0.255-0.146,0.425-0.172c0.231,0.066,0.409,0.357,0.409,0.722
			c0,0.414-0.224,0.75-0.5,0.75c-0.276,0-0.5-0.336-0.5-0.75C17.241,8.53,17.306,8.337,17.407,8.2z"/>
		<circle fill="#F7F7F7" cx="17.7" cy="8.55" r="0.25"/>
		<path fill="#FFE28A" d="M13.097,20.923l-0.012-0.006c0,0-1.447,0.424-1.565,1.808c-0.024,0.283,0.203,0.525,0.487,0.536
			c1.636,0.064,2.257-1.265,2.389-1.605C13.876,21.442,13.43,21.169,13.097,20.923z"/>
		<path fill="#FFD96C" d="M18.903,20.923l0.012-0.006c0,0,1.447,0.424,1.565,1.808c0.024,0.283-0.203,0.525-0.487,0.536
			c-1.636,0.064-2.257-1.265-2.389-1.605C18.124,21.442,18.57,21.169,18.903,20.923z"/>
	</g>
</g>
</svg>
